Adwaita++/actions/22/align-vertical-top-to-anchor.svg

<svg height="22" viewBox="0 0 22 22" width="22" xmlns="http://www.w3.org/2000/svg">
  <path d="m14.003906 1.0039062v2h2v-2zm0 2h-13.99999975v2h.99999995v9.9999998h4v-9.9999998h4v9.9999998h3.9999998v-9.9999998h1z" fill="#444" transform="translate(3 3)"/>
</svg>

<svg xmlns="http://www.w3.org/2000/svg" width="22" height="22" viewBox="0 0 22 22">
 <defs>
  <style id="current-color-scheme" type="text/css">
   .ColorScheme-Text { color:#444444; } .ColorScheme-Highlight { color:#4285f4; }
  </style>
 </defs>
 <path style="fill:currentColor" class="ColorScheme-Text" d="M 14.003906 1.0039062 L 14.003906 3.0039062 L 16.003906 3.0039062 L 16.003906 1.0039062 L 14.003906 1.0039062 z M 14.003906 3.0039062 L 0.00390625 3.0039062 L 0.00390625 5.0039062 L 1.0039062 5.0039062 L 1.0039062 15.003906 L 5.0039062 15.003906 L 5.0039062 5.0039062 L 9.0039062 5.0039062 L 9.0039062 15.003906 L 13.003906 15.003906 L 13.003906 5.0039062 L 14.003906 5.0039062 L 14.003906 3.0039062 z" transform="translate(3 3)"/>
</svg>
